src/assets/images/no-img-card.svg

<svg width="340" height="200" viewBox="0 0 340 200" fill="none" xmlns="http://www.w3.org/2000/svg">
<rect width="340" height="200" fill="#DDDFFF"/>
<g opacity="0.2">
<path d="M108.206 103.705V88.7922H103V108.272H117.964V103.705H108.206Z" fill="#6D6AFE"/>
<path d="M124.68 108.272V93.1262H119.474V108.272H124.68ZM124.68 91.9612V88H119.474V91.9612H124.68Z" fill="#6D6AFE"/>
<path d="M136.171 92.6602C134.117 92.6602 132.506 93.4291 131.409 94.7107V93.1262H126.203V108.272H131.409V101.491C131.456 98.5786 132.74 97.3437 134.841 97.3437C136.638 97.3437 137.339 98.2524 137.339 100.419V108.272H142.544V99.5107C142.544 94.9204 140.817 92.6602 136.171 92.6602Z" fill="#6D6AFE"/>
<path d="M149.041 98.0893V88H143.835V108.272H149.041V104.707L151.212 102.167L153.733 108.272H159.476L156.184 100.233H152.869L159.009 93.1262H153.336L149.041 98.0893Z" fill="#6D6AFE"/>
<path d="M170.085 108.738C173.236 108.738 177.112 106.944 177.112 100.699C177.112 94.4544 173.236 92.6602 170.085 92.6602C168.334 92.6602 166.77 93.1728 165.509 94.035V88H160.304V108.272H165.509V107.363C166.77 108.249 168.334 108.738 170.085 108.738ZM168.708 104.194C166.91 104.194 165.509 103.285 165.509 100.699V100.513C165.579 98.0893 166.957 97.2039 168.708 97.2039C170.715 97.2039 171.906 98.2524 171.906 100.699C171.906 103.169 170.715 104.194 168.708 104.194Z" fill="#6D6AFE"/>
<path d="M177.935 108.272H183.141V101.957C183.188 99.0214 184.518 97.3204 189.164 97.3204V92.6602C186.362 92.6602 184.378 93.6388 183.141 95.1068V93.1262H177.935V108.272Z" fill="#6D6AFE"/>
<path d="M196.541 108.738C198.269 108.738 199.856 108.249 201.117 107.363V108.272H206.322V93.1262H201.117V94.035C199.856 93.1728 198.269 92.6602 196.541 92.6602C193.389 92.6602 189.514 94.4544 189.514 100.699C189.514 106.944 193.389 108.738 196.541 108.738ZM197.918 104.194C195.911 104.194 194.72 103.169 194.72 100.699C194.72 98.2524 195.911 97.2039 197.918 97.2039C199.716 97.2039 201.117 98.1359 201.117 100.699C201.117 103.285 199.716 104.194 197.918 104.194Z" fill="#6D6AFE"/>
<path d="M207.613 108.272H212.819V101.957C212.865 99.0214 214.196 97.3204 218.841 97.3204V92.6602C216.04 92.6602 214.056 93.6388 212.819 95.1068V93.1262H207.613V108.272Z" fill="#6D6AFE"/>
<path d="M230.794 93.1262V99.7204C230.234 100.35 229.23 100.606 228.063 100.606C225.588 100.606 224.865 99.8369 224.865 98.4155V93.1262H219.659V98.7883C219.659 102.936 222.6 105.173 226.686 105.173C228.203 105.173 229.604 104.847 230.794 104.287V104.847C230.794 106.92 230 107.666 227.946 107.666C226.242 107.666 225.425 107.153 225.191 105.965H219.962C220.383 110.252 222.694 112 227.946 112C233.666 112 236 109.903 236 104.45V93.1262H230.794Z" fill="#6D6AFE"/>
</g>
</svg>

<svg xmlns="http://www.w3.org/2000/svg" width="340" height="200" fill="none"><path fill="#DDDFFF" d="M0 0h340v200H0z"/><g fill="#6D6AFE" opacity=".2"><path d="M108.206 103.705V88.792H103v19.48h14.964v-4.567h-9.758ZM124.68 108.272V93.126h-5.206v15.146h5.206Zm0-16.31V88h-5.206v3.961h5.206ZM136.171 92.66c-2.054 0-3.665.77-4.762 2.05v-1.584h-5.206v15.146h5.206v-6.781c.047-2.912 1.331-4.147 3.432-4.147 1.797 0 2.498.908 2.498 3.075v7.853h5.205v-8.761c0-4.59-1.727-6.85-6.373-6.85ZM149.041 98.09V88h-5.206v20.272h5.206v-3.565l2.171-2.54 2.521 6.105h5.743l-3.292-8.039h-3.315l6.14-7.107h-5.673l-4.295 4.963ZM170.085 108.738c3.151 0 7.027-1.794 7.027-8.039 0-6.245-3.876-8.039-7.027-8.039-1.751 0-3.315.513-4.576 1.375V88h-5.205v20.272h5.205v-.909c1.261.886 2.825 1.375 4.576 1.375Zm-1.377-4.544c-1.798 0-3.199-.909-3.199-3.495v-.186c.07-2.424 1.448-3.31 3.199-3.31 2.007 0 3.198 1.05 3.198 3.496 0 2.47-1.191 3.495-3.198 3.495ZM177.935 108.272h5.206v-6.315c.047-2.936 1.377-4.637 6.023-4.637v-4.66c-2.802 0-4.786.979-6.023 2.447v-1.98h-5.206v15.145ZM196.541 108.738c1.728 0 3.315-.489 4.576-1.375v.909h5.205V93.126h-5.205v.909c-1.261-.862-2.848-1.375-4.576-1.375-3.152 0-7.027 1.794-7.027 8.039 0 6.245 3.875 8.039 7.027 8.039Zm1.377-4.544c-2.007 0-3.198-1.025-3.198-3.495 0-2.447 1.191-3.495 3.198-3.495 1.798 0 3.199.932 3.199 3.495 0 2.586-1.401 3.495-3.199 3.495ZM207.613 108.272h5.206v-6.315c.046-2.936 1.377-4.637 6.022-4.637v-4.66c-2.801 0-4.785.979-6.022 2.447v-1.98h-5.206v15.145ZM230.794 93.126v6.594c-.56.63-1.564.886-2.731.886-2.475 0-3.198-.77-3.198-2.19v-5.29h-5.206v5.662c0 4.148 2.941 6.385 7.027 6.385 1.517 0 2.918-.326 4.108-.886v.56c0 2.073-.794 2.819-2.848 2.819-1.704 0-2.521-.513-2.755-1.701h-5.229c.421 4.287 2.732 6.035 7.984 6.035 5.72 0 8.054-2.097 8.054-7.55V93.126h-5.206Z"/></g></svg>
